packages/astro-components-stencil/src/icons/restore-from-trash.svg

<svg xmlns="http://www.w3.org/2000/svg" viewBox="0 0 24 24"><g xmlns="http://www.w3.org/2000/svg" id="restore-from-trash" fill-rule="nonzero">
            <path d="M6 19c0 1.1.9 2 2 2h8c1.1 0 2-.9 2-2V9c0-1.1-.9-2-2-2H8c-1.1 0-2 .9-2 2v10zm5.65-8.65c.2-.2.51-.2.71 0L16 14h-2v4h-4v-4H8l3.65-3.65zM15.5 4l-.71-.71c-.18-.18-.44-.29-.7-.29H9.91c-.26 0-.52.11-.7.29L8.5 4H6c-.55 0-1 .45-1 1s.45 1 1 1h12c.55 0 1-.45 1-1s-.45-1-1-1h-2.5z"/>
        </g></svg>

<svg width="24" height="24" viewBox="0 0 24 24" fill="none" xmlns="http://www.w3.org/2000/svg">
<path fill-rule="evenodd" clip-rule="evenodd" d="M14.79 3.29L15.5 4H18C18.55 4 19 4.45 19 5C19 5.55 18.55 6 18 6H6C5.45 6 5 5.55 5 5C5 4.45 5.45 4 6 4H8.5L9.21 3.29C9.39 3.11 9.65 3 9.91 3H14.09C14.35 3 14.61 3.11 14.79 3.29ZM6 19C6 20.1 6.9 21 8 21H16C17.1 21 18 20.1 18 19V9C18 7.9 17.1 7 16 7H8C6.9 7 6 7.9 6 9V19ZM11.65 10.35C11.85 10.15 12.16 10.15 12.36 10.35L16 14H14V18H10V14H8L11.65 10.35Z" fill="black"/>
</svg>
